X:1
T:Ringnesin
T:Norsk Reinlendar
O:Norge, Vågå
R:Schottis
Z:Jonas Brunskog
M:2/4
L:1/16
K:D
|:DFED F2F2|{F}DFED f2f2|gfed cBA2|cBAG FED2|
DFED F2F2|{F}DFED f2f2|gfed cABc|[1 d2d2 d4:|[2d2d2 d2ef|]
|:g2B2 Bgfe|f2A2 Afed|c2EF GABc|d2FG A2ef|
g2B2 Bgfe|f2A2 Afed|c2EF GABc|[1d2d2 d2ef:|[2d2d2 d4|]

